X:1
T:Rejoice! Ye Saints
T:Rejoice! Ye Saints
T:James H. Burke, 1891
T:Charles Russell Hurditch, 1873
T:Public Domain Courtesy of the Cyber Hymnal™
C:James H. Burke, 1891
Z:Public Domain
Z:Courtesy of the Cyber Hymnal™
%%score ( 1 2 ) ( 3 4 )
L:1/8
Q:1/4=107
M:4/4
K:C
V:1 treble 
V:2 treble 
V:3 bass 
V:4 bass 
V:1
 [EG]2 | [CE]2 [EG]2 [Ec]3 [CE] | [CF]2 [FA]2 [EG]2 [Ec]2 | [FB]3 [FG] [DF]2 [B,D]2 | [CE]6 [EG]2 | %5
w: 1.~Re-|joice! ye saints, a-|gain re- joice, And|sing, with one ac-|cord; Re-|
w: 2.~Re-|joice! re- joice! lift|up your head, And|praise the liv- ing|God; That|
w: 3.~Re-|joice! re- joice! let|praise a- bound Be-|fore Je- ho- vah’s|throne; For|
w: 4.~Re-|joice! re- joice! the|Lord will come, Ac-|cord- ing to His|word, And|
 [CE]2 [EG]2 [Ec]3 [CE] | [CF]2 [FA]2 [EG]2 [Ec]2 | [FB]3 [FG] [FA]2 [FB]2 | [Ec]6 || %9
w: joice with all your|heart and voice, In|Christ your ris- en|Lord.|
w: for your souls the|Sav- ior shed His|own most pre- cious|blood.|
w: dead ones raised, and|lost ones found, And|pro- di- gals brought|home.|
w: ga- ther all His|ran- somed home, “For-|ev- er with the|Lord.”|
"^Refrain" [EG]2 | c6 [GA]2 | [^Fd]2 [Fd]>[Fd] [Fd]2 [Fc]2 | [FB]2 [FA]>[FA] ([FG]2 [DF]2) | %13
w: ||||
w: Re-|joice, re-|joice in the Lord Re-|joice in the Lord *|
w: ||||
w: ||||
 [CE]2 [EG]4 [EG]2 | c6 [GA]2 | [^Fd]2 [Fd]>[Fd] [Fd]2 [Fc][Fc] | [FB]2 [FA]2 [FG]3 [FB] | [Ec]6 |] %18
w: |||||
w: al- way; Re-|joice, re-|joice in the Lord, And a-|gain I say, re-|joice.|
w: |||||
w: |||||
V:2
 x2 | x8 | x8 | x8 | x8 | x8 | x8 | x8 | x6 || x2 | (E2 E>E E2) x2 | x8 | x8 | x8 | %14
 (E2 E>E E2) x2 | x8 | x8 | x6 |] %18
V:3
 [C,G,]2 | [C,G,]2 [C,G,]2 [C,G,]3 [C,G,] | [F,A,]2 [F,C]2 [C,C]2 [C,G,]2 | %3
w: ~|~ ~ ~ ~|~ ~ ~ ~|
 [G,,G,]3 [G,,G,] [G,,G,]2 [G,,G,]2 | [C,G,]6 [C,G,]2 | [C,G,]2 [C,G,]2 [C,G,]3 [C,G,] | %6
w: ~ ~ ~ ~|~ ~|~ ~ ~ ~|
 [F,A,]2 [F,C]2 [C,C]2 [C,G,]2 | [G,,G,]3 [G,,G,] [G,,G,]2 [G,,G,]2 | [C,G,]6 || [C,G,]2 | %10
w: ~ ~ ~ ~|~ ~ ~ ~|~|~|
 [C,G,]2 [C,C]>[C,C] [C,C]2 [E,^C]2 | [D,C]2 [D,A,]>[D,A,] [D,A,]2 [D,D]2 | %12
w: ~ in the Lord, ~|~ ~ ~ ~ ~|
 [G,D]2 [G,C]>[G,C] (B,2 G,2) | [C,G,]2 [C,C]4 [C,C]2 | [C,G,]2 [C,C]>[C,C] [C,C]2 [E,^C]2 | %15
w: ~ ~ ~ ~ *|~ ~ ~|~ in the Lord, *|
 [D,D]2 [D,A,]>[D,A,] [D,A,]2 [D,D][D,D] | [G,D]2 [G,C]2 [G,B,]3 [G,D] | [C,C]6 |] %18
w: |||
V:4
 x2 | x8 | x8 | x8 | x8 | x8 | x8 | x8 | x6 || x2 | x8 | x8 | x4 G,4 | x8 | x8 | x8 | x8 | x6 |] %18

